X: 1
T: The Maid On The Green
R: jig
M: 6/8
L: 1/8
Z: Contributed 2015-10-23 04:20:15 by Kevin N n@n.com
K: Gmaj
~g3 e2d|Bee dBA|BGG DGG|BAG A2d|
~g3 e2d|Bee dBA|BGG dBA|AGF G3:|
|:~g3 afd|~g3 a3|~g3 eag|fdc# d2a|
bag agf|~g3 e2d|Bee dBA|AGF G3:|


